modules/hawcons-stroke/icons/icon-29-fake-grinning-face-eyebrows.svg

<?xml version="1.0" encoding="UTF-8" standalone="no"?>
<svg width="32px" height="32px" viewBox="0 0 32 32" version="1.1" xmlns="http://www.w3.org/2000/svg" xmlns:xlink="http://www.w3.org/1999/xlink" xmlns:sketch="http://www.bohemiancoding.com/sketch/ns">
    <!-- Generator: Sketch 3.0.3 (7891) - http://www.bohemiancoding.com/sketch -->
    <title>icon 29 fake grinning face eyebrows</title>
    <desc>Created with Sketch.</desc>
    <defs></defs>
    <g id="Page-1" stroke="none" stroke-width="1" fill="none" fill-rule="evenodd" sketch:type="MSPage">
        <g id="icon-29-fake-grinning-face-eyebrows" sketch:type="MSArtboardGroup" fill="#929292">
            <path d="M16.5,29 C23.4035597,29 29,23.4035597 29,16.5 C29,9.59644029 23.4035597,4 16.5,4 C9.59644029,4 4,9.59644029 4,16.5 C4,23.4035597 9.59644029,29 16.5,29 L16.5,29 Z M16.5,28 C22.8512749,28 28,22.8512749 28,16.5 C28,10.1487251 22.8512749,5 16.5,5 C10.1487251,5 5,10.1487251 5,16.5 C5,22.8512749 10.1487251,28 16.5,28 L16.5,28 Z M16.4969482,21 C13.5,21 12,20 12,20 C12,20 13,23 16.5,23 C20,23 21,20 21,20 C21,20 19.4938965,21 16.4969482,21 L16.4969482,21 Z M20.6215213,9.96709541 L20.0623284,10.796133 L23.3784787,13.0329046 L23.9376716,12.203867 L20.6215213,9.96709541 L20.6215213,9.96709541 Z M9.0623284,12.203867 L9.62152131,13.0329046 L12.9376716,10.796133 L12.3784787,9.96709541 L9.0623284,12.203867 L9.0623284,12.203867 Z M12,15 C12.5522848,15 13,14.5522848 13,14 C13,13.4477152 12.5522848,13 12,13 C11.4477152,13 11,13.4477152 11,14 C11,14.5522848 11.4477152,15 12,15 L12,15 Z M21,15 C21.5522848,15 22,14.5522848 22,14 C22,13.4477152 21.5522848,13 21,13 C20.4477152,13 20,13.4477152 20,14 C20,14.5522848 20.4477152,15 21,15 L21,15 Z" id="fake-grinning-face-eyebrows" sketch:type="MSShapeGroup"></path>
        </g>
    </g>
</svg>

<svg width="32" height="32" viewBox="0 0 32 32" xmlns="http://www.w3.org/2000/svg"><path d="M16.5 29C23.404 29 29 23.404 29 16.5S23.404 4 16.5 4 4 9.596 4 16.5 9.596 29 16.5 29zm0-1C22.851 28 28 22.851 28 16.5S22.851 5 16.5 5 5 10.149 5 16.5 10.149 28 16.5 28zm-.003-7C13.5 21 12 20 12 20s1 3 4.5 3 4.5-3 4.5-3-1.506 1-4.503 1zm4.125-11.033l-.56.83 3.316 2.236.56-.83-3.316-2.236zm-11.56 2.237l.56.829 3.316-2.237-.56-.829-3.316 2.237zM12 15a1 1 0 1 0 0-2 1 1 0 0 0 0 2zm9 0a1 1 0 1 0 0-2 1 1 0 0 0 0 2z" fill="#929292" fill-rule="evenodd"/></svg>
